X: 32282
T: Pig Ankle Rag
R: hornpipe
M: 4/4
K: Dmajor
af|gec(A A)2 af|gec(A A)ABA|dABA dABA|dAB(d d)2 af|
gec(A A)2 af|gec(A A)ABA|dABA dABA|dAB(d d)B A2|
B4 d4|fa b3a f2|efe(a a)f e2|d6||
cB|ABcA BcAB|cAB(c c)B Az|ABdA BdAB|dAB(d d)BAz|
ABcA BcAB|cABc zA BA|dABA dABA|dAB(d d)B A2|
B4 d4|fa b3a f2|efe(a a)f e2|d6||

